src/assets/icons/adwaita/mimetypes/application-x-designer.svg

<?xml version="1.0" encoding="UTF-8" standalone="no"?>
<svg
   height="128px"
   viewBox="0 0 128 128"
   width="128px"
   version="1.1"
   id="application_x_designer_svg35"
   xmlns="http://www.w3.org/2000/svg"
   xmlns:svg="http://www.w3.org/2000/svg">
  <defs
     id="application_x_designer_defs39" />
  <linearGradient
     id="application_x_designer_a"
     gradientUnits="userSpaceOnUse"
     x1="36"
     x2="60"
     y1="68"
     y2="68">
    <stop
       offset="0"
       stop-color="#ed336c"
       id="application_x_designer_stop2" />
    <stop
       offset="1"
       stop-color="#ffa348"
       id="application_x_designer_stop4" />
  </linearGradient>
  <linearGradient
     id="application_x_designer_b"
     gradientTransform="matrix(0 1 -1 0 144 -32)"
     gradientUnits="userSpaceOnUse"
     x1="72"
     x2="96"
     y1="68"
     y2="68">
    <stop
       offset="0"
       stop-color="#404ce6"
       id="application_x_designer_stop7" />
    <stop
       offset="1"
       stop-color="#c061cb"
       id="application_x_designer_stop9" />
  </linearGradient>
  <linearGradient
     id="application_x_designer_c"
     gradientUnits="userSpaceOnUse"
     x1="68.84919"
     x2="95.257637"
     y1="84"
     y2="84">
    <stop
       offset="0"
       stop-color="#33d1c6"
       id="application_x_designer_stop12" />
    <stop
       offset="1"
       stop-color="#1c25d8"
       id="application_x_designer_stop14" />
  </linearGradient>
  <path
     style="display:inline;fill:#1facf5;fill-opacity:1;stroke:none;stroke-width:0.125;stroke-linejoin:round;stroke-miterlimit:4;stroke-dasharray:none;stroke-opacity:1;enable-background:new"
     clip-path="none"
     d="m 27.978072,8.0000006 h 50.000002 l 30.042896,29.9178934 10e-4,74.060006 c 8e-5,4.432 -3.6122,8.0221 -8.044196,8.0221 H 27.978011 c -4.431999,0 -7.999999,-3.568 -7.999999,-8.00001 V 16 c 0,-4.431999 3.568,-7.9999994 7.999999,-7.9999994 z"
     id="application_x_designer_path4411" />
  <path
     style="display:inline;vector-effect:none;fill:#000000;fill-opacity:0.2;stroke:none;stroke-width:0.125;stroke-linecap:butt;stroke-linejoin:round;stroke-miterlimit:4;stroke-dasharray:none;stroke-dashoffset:0;stroke-opacity:1;enable-background:new"
     d="M 77.978074,8.0000006 V 30.000002 c 0,4.432 3.610527,7.923448 8.042527,7.923448 l 22.000369,-0.0055 z"
     id="application_x_designer_path4413" />
  <path
     id="application_x_designer_path33"
     style="fill:#ffffff;stroke-width:0.0612245"
     d="M 63.925781 43.998047 C 62.866597 43.998047 62.003906 44.85488 62.003906 45.914062 L 62.003906 47.630859 C 58.582459 48.501839 56.132812 51.5629 56.132812 55.207031 C 56.132812 57.75397 57.350087 60.020735 59.248047 61.447266 C 59.450087 61.686041 59.574219 61.985531 59.574219 62.322266 C 59.574219 62.420226 59.572797 62.517538 59.560547 62.609375 L 51.128906 80.486328 L 47.634766 80.486328 C 47.065378 80.486328 46.599609 80.946238 46.599609 81.515625 L 46.599609 81.521484 C 46.599609 82.090872 47.065378 82.550781 47.634766 82.550781 L 50.154297 82.550781 L 43.642578 96.357422 C 43.232374 97.232932 43.435268 98.241382 44.078125 98.896484 L 41.566406 103.99805 L 45.535156 99.699219 C 46.588217 99.974729 47.713855 99.473095 48.191406 98.462891 L 55.699219 82.550781 L 62.298828 82.550781 L 62.298828 83.916016 C 62.298828 84.785404 63.007303 85.490234 63.882812 85.490234 L 63.96875 85.490234 C 64.84426 85.490234 65.554688 84.785404 65.554688 83.916016 L 65.554688 82.550781 L 72.306641 82.550781 L 79.814453 98.462891 C 80.285881 99.479218 81.417905 99.974729 82.464844 99.699219 L 86.433594 103.99805 L 83.927734 98.896484 C 84.564469 98.241382 84.773485 97.239054 84.363281 96.357422 L 77.851562 82.550781 L 80.212891 82.550781 C 80.788397 82.550781 81.246088 82.090867 81.246094 81.521484 C 81.246088 80.952102 80.788397 80.492428 80.212891 80.486328 L 76.876953 80.486328 L 68.445312 62.609375 C 68.433072 62.517535 68.433594 62.420225 68.433594 62.322266 C 68.433594 61.991654 68.556035 61.686041 68.751953 61.447266 C 70.649913 60.020735 71.873047 57.75397 71.873047 55.207031 C 71.873047 51.515707 69.306679 48.4286 65.849609 47.601562 L 65.849609 45.914062 C 65.849609 44.85488 64.991087 43.998047 63.925781 43.998047 z M 65.794922 51.074219 C 67.401431 51.764064 68.525391 53.353939 68.525391 55.207031 C 68.525391 57.692745 66.503819 59.707031 64.005859 59.707031 C 61.495655 59.707031 59.488281 57.692745 59.488281 55.207031 C 59.488281 53.412287 60.543707 51.862776 62.076172 51.140625 C 62.30283 51.942997 63.041951 52.53125 63.925781 52.53125 C 64.82922 52.53125 65.590687 51.913586 65.794922 51.074219 z M 63.96875 66.007812 L 64.005859 66.007812 L 64.042969 66.007812 C 64.287867 66.007812 64.502025 66.123494 64.636719 66.294922 L 71.332031 80.486328 L 65.554688 80.486328 L 65.554688 78.828125 C 65.554687 77.952615 64.84426 77.248047 63.96875 77.248047 L 63.882812 77.248047 C 63.007302 77.248047 62.298828 77.958738 62.298828 78.828125 L 62.298828 80.486328 L 56.673828 80.486328 L 63.369141 66.294922 C 63.509957 66.117371 63.723852 66.007812 63.96875 66.007812 z " />
</svg>

<svg xmlns="http://www.w3.org/2000/svg" width="128" height="128" viewBox="0 0 128 128"><path d="M27.978 8h50l30.043 29.918.001 74.06c0 4.432-3.612 8.022-8.044 8.022h-72c-4.432 0-8-3.568-8-8V16c0-4.432 3.568-8 8-8" style="display:inline;fill:#1facf5;fill-opacity:1;stroke:none;stroke-width:.125;stroke-linejoin:round;stroke-miterlimit:4;stroke-dasharray:none;stroke-opacity:1"/><path d="M77.978 8v22c0 4.432 3.61 7.923 8.043 7.923l22-.005z" style="display:inline;vector-effect:none;fill:#000;fill-opacity:.2;stroke:none;stroke-width:.125;stroke-linecap:butt;stroke-linejoin:round;stroke-miterlimit:4;stroke-dasharray:none;stroke-dashoffset:0;stroke-opacity:1"/><path d="M63.926 43.998a1.92 1.92 0 0 0-1.922 1.916v1.717a7.78 7.78 0 0 0-5.871 7.576 7.79 7.79 0 0 0 3.115 6.24c.202.239.326.539.326.875a2 2 0 0 1-.013.287l-8.432 17.877h-3.494c-.57 0-1.035.46-1.035 1.03v.005c0 .57.465 1.03 1.035 1.03h2.52l-6.512 13.806a2.26 2.26 0 0 0 .435 2.54l-2.512 5.101 3.97-4.299a2.296 2.296 0 0 0 2.655-1.236L55.7 82.55h6.6v1.365c0 .87.708 1.574 1.584 1.574h.086a1.58 1.58 0 0 0 1.586-1.574V82.55h6.752l7.507 15.912a2.28 2.28 0 0 0 2.65 1.236l3.97 4.3-2.506-5.103a2.27 2.27 0 0 0 .435-2.539L77.853 82.55h2.36c.576 0 1.034-.46 1.034-1.03 0-.569-.458-1.029-1.033-1.035h-3.336L68.445 62.61c-.012-.091-.011-.189-.011-.287 0-.33.122-.636.318-.875a7.79 7.79 0 0 0 3.121-6.24c0-3.691-2.566-6.778-6.023-7.605v-1.688c0-1.06-.859-1.916-1.924-1.916m1.869 7.076a4.5 4.5 0 0 1 2.73 4.133c0 2.486-2.021 4.5-4.52 4.5a4.5 4.5 0 0 1-4.517-4.5 4.49 4.49 0 0 1 2.588-4.066c.227.802.966 1.39 1.85 1.39a1.92 1.92 0 0 0 1.869-1.457m-1.826 14.934h.074c.245 0 .459.115.594.287l6.695 14.191h-5.777v-1.658c0-.875-.71-1.58-1.586-1.58h-.086c-.876 0-1.584.71-1.584 1.58v1.658h-5.625l6.695-14.191a.76.76 0 0 1 .6-.287" style="fill:#fff;stroke-width:.0612245"/></svg>
